picto/no-thoroughfare.svg

<svg class="color-immutable" width="24" height="24" viewBox="0 0 24 24" fill="none" xmlns="http://www.w3.org/2000/svg"><g clip-path="url(#a)"><path d="M0 22.5v-21C0 .675.675 0 1.5 0h21c.825 0 1.5.675 1.5 1.5v21c0 .825-.675 1.5-1.5 1.5h-21C.675 24 0 23.325 0 22.5Z" fill="#2D327D"/><path d="M21 12a9 9 0 0 1-9 9 9 9 0 0 1-9-9 9 9 0 0 1 9-9 9 9 0 0 1 9 9Z" fill="#fff"/><path d="M12 3a9 9 0 0 0-9 9 9 9 0 0 0 9 9 9 9 0 0 0 9-9 9 9 0 0 0-9-9Zm0 15.75a6.75 6.75 0 1 1 0-13.5 6.75 6.75 0 0 1 0 13.5Z" fill="#EB0000"/><path d="M16.826 8.25H7.174a.499.499 0 0 0 0 .996h3.452v8.382a.515.515 0 1 0 1.031 0V13.21h.687v4.418a.514.514 0 1 0 1.03 0V9.247h3.453a.499.499 0 0 0-.001-.997ZM12 7.781a1.032 1.032 0 1 0 0-2.063 1.032 1.032 0 0 0 0 2.063Z" fill="#000"/></g><defs><clipPath id="a"><path fill="#fff" d="M0 0h24v24H0z"/></clipPath></defs></svg>

<svg class="color-immutable" width="24" height="24" viewBox="0 0 24 24" fill="none" xmlns="http://www.w3.org/2000/svg"><path d="M0 22.5V1.5C0 0.675 0.675 0 1.5 0H22.5C23.325 0 24 0.675 24 1.5V22.5C24 23.325 23.325 24 22.5 24H1.5C0.675 24 0 23.325 0 22.5Z" fill="#2D327D"/><path d="M21 12C21 16.971 16.971 21 12 21C7.029 21 3 16.971 3 12C3 7.029 7.029 3 12 3C16.971 3 21 7.029 21 12Z" fill="white"/><path d="M12 3C7.029 3 3 7.029 3 12C3 16.971 7.029 21 12 21C16.971 21 21 16.971 21 12C21 7.029 16.971 3 12 3ZM12 18.75C8.272 18.75 5.25 15.728 5.25 12C5.25 8.272 8.272 5.25 12 5.25C15.728 5.25 18.75 8.272 18.75 12C18.75 15.728 15.728 18.75 12 18.75Z" fill="#EB0000"/><path d="M16.826 8.25H7.17403C6.89903 8.25 6.67603 8.474 6.67603 8.748C6.67603 9.023 6.89903 9.246 7.17403 9.246H10.626V17.628C10.626 17.913 10.856 18.144 11.141 18.144C11.426 18.144 11.657 17.914 11.657 17.628V13.21H12.344V17.628C12.344 17.913 12.576 18.144 12.86 18.144C13.144 18.144 13.374 17.914 13.374 17.628V9.247H16.827C17.101 9.247 17.325 9.024 17.325 8.749C17.324 8.474 17.1 8.25 16.826 8.25Z" fill="black"/><path d="M12.0001 7.781C12.5691 7.781 13.0321 7.32 13.0321 6.75C13.0321 6.181 12.5691 5.718 12.0001 5.718C11.4311 5.718 10.9691 6.181 10.9691 6.75C10.9691 7.321 11.4311 7.781 12.0001 7.781Z" fill="black"/></svg>
